X: 38970
T: Swallow's Folly
R: reel
M: 4/4
K: Adorian
|:EAAA BAGE|DEFG A4:|
|:EGAB cBAG|EDEF G4:|
|:DGAB cBAG|EFGA B4:|
|:EAAA BAGE|DEFG A4:|

